src/assets/icons/icone_twitter.svg

<svg xmlns="http://www.w3.org/2000/svg"  viewBox="0 0 50 50" width="50px" height="50px"><path d="M 11 4 C 7.1456661 4 4 7.1456661 4 11 L 4 39 C 4 42.854334 7.1456661 46 11 46 L 39 46 C 42.854334 46 46 42.854334 46 39 L 46 11 C 46 7.1456661 42.854334 4 39 4 L 11 4 z M 11 6 L 39 6 C 41.773666 6 44 8.2263339 44 11 L 44 39 C 44 41.773666 41.773666 44 39 44 L 11 44 C 8.2263339 44 6 41.773666 6 39 L 6 11 C 6 8.2263339 8.2263339 6 11 6 z M 13.085938 13 L 22.308594 26.103516 L 13 37 L 15.5 37 L 23.4375 27.707031 L 29.976562 37 L 37.914062 37 L 27.789062 22.613281 L 36 13 L 33.5 13 L 26.660156 21.009766 L 21.023438 13 L 13.085938 13 z M 16.914062 15 L 19.978516 15 L 34.085938 35 L 31.021484 35 L 16.914062 15 z"/></svg>

<svg xmlns="http://www.w3.org/2000/svg" xmlns:xlink="http://www.w3.org/1999/xlink" viewBox="0,0,256,256" width="50px" height="50px" fill-rule="nonzero"><g fill="#ffffff" fill-rule="nonzero" stroke="none" stroke-width="1" stroke-linecap="butt" stroke-linejoin="miter" stroke-miterlimit="10" stroke-dasharray="" stroke-dashoffset="0" font-family="none" font-weight="none" font-size="none" text-anchor="none" style="mix-blend-mode: normal"><g transform="scale(5.12,5.12)"><path d="M11,4c-3.85433,0 -7,3.14567 -7,7v28c0,3.85433 3.14567,7 7,7h28c3.85433,0 7,-3.14567 7,-7v-28c0,-3.85433 -3.14567,-7 -7,-7zM11,6h28c2.77367,0 5,2.22633 5,5v28c0,2.77367 -2.22633,5 -5,5h-28c-2.77367,0 -5,-2.22633 -5,-5v-28c0,-2.77367 2.22633,-5 5,-5zM13.08594,13l9.22266,13.10352l-9.30859,10.89648h2.5l7.9375,-9.29297l6.53906,9.29297h7.9375l-10.125,-14.38672l8.21094,-9.61328h-2.5l-6.83984,8.00977l-5.63672,-8.00977zM16.91406,15h3.06445l14.10742,20h-3.06445z"></path></g></g></svg>
